X:12096
T:Nova Scotia Polka
R:Polka
M:4/4
L:1/8
K:A
cd|efec Acea|g2f2 f2Bc|dedc Bcde|f2e2 c2cd|
efec Acea|g2f2 b2ba|gagf edcB|A2c2 A2:|
|:e2|c2e2 edef|e2d2 dcBc|d2f2 fefg|f2e2 c3d|
e2f2 g2a2|a2g2 gfga|g2f2 fefg|f2e2 e3d|
c2e2 edef|e2d2 dcBc|d2f2 fefg|f2e2 c3d|
e2f2 g2a2|b2a2 f3a|gagf edcB|A2c2 A2:|


